usr/share/icons/biglinux-icons-material/scalable/apps/whatsapp-desktop.svg

<?xml version="1.0" encoding="UTF-8" standalone="no"?>
<svg
   width="24"
   height="24"
   viewBox="0 0 24 24"
   fill="none"
   version="1.1"
   id="svg6"
   sodipodi:docname="whatsapp-desktop.svg"
   inkscape:version="1.3 (0e150ed6c4, 2023-07-21)"
   xmlns:inkscape="http://www.inkscape.org/namespaces/inkscape"
   xmlns:sodipodi="http://sodipodi.sourceforge.net/DTD/sodipodi-0.dtd"
   xmlns="http://www.w3.org/2000/svg"
   xmlns:svg="http://www.w3.org/2000/svg">
  <sodipodi:namedview
     id="namedview6"
     pagecolor="#ffffff"
     bordercolor="#000000"
     borderopacity="0.25"
     inkscape:showpageshadow="2"
     inkscape:pageopacity="0.0"
     inkscape:pagecheckerboard="0"
     inkscape:deskcolor="#d1d1d1"
     inkscape:zoom="23.894317"
     inkscape:cx="3.4317784"
     inkscape:cy="8.8933282"
     inkscape:window-width="2560"
     inkscape:window-height="998"
     inkscape:window-x="0"
     inkscape:window-y="0"
     inkscape:window-maximized="1"
     inkscape:current-layer="svg6" />
  <path
     fill-rule="evenodd"
     clip-rule="evenodd"
     d="M1 11.5632C1 11.5642 1 11.5651 1 11.566C1.00001 11.7073 1.00162 11.8489 1.00483 11.9906C0.974199 13.5124 1.12311 15.0161 1.45158 16.5017C2.22559 19.8018 4.26839 21.8208 7.57997 22.5585C9.00824 22.8524 10.4481 22.9996 11.8995 23C11.9038 23 11.9081 23 11.9124 23C12.285 22.9999 12.6584 22.9901 13.0325 22.9706C14.6647 22.943 16.2531 22.6682 17.7978 22.1463C19.704 21.447 21.0824 20.1761 21.933 18.3336C22.3916 17.271 22.6895 16.1642 22.8265 15.0133C23.0096 13.3758 23.0478 11.7347 22.941 10.09C22.8639 8.78021 22.6119 7.50549 22.185 6.26585C21.4386 4.20689 20.0525 2.76044 18.0269 1.9265C16.8085 1.46308 15.5484 1.18066 14.2467 1.07924C12.8111 0.977551 11.3755 0.973736 9.93969 1.06779C9.83043 1.0996 9.71588 1.11486 9.59604 1.11359C8.8536 1.17326 8.12048 1.29157 7.39669 1.46852C4.2905 2.20701 2.33171 4.11908 1.52031 7.20471C1.17352 8.6385 1.00008 10.0914 1 11.5632Z"
     fill="url(#paint0_radial_109_2)"
     id="path1" />
  <g
     id="g6"
     transform="translate(-0.63625154,0.6696153)">
    <path
       fill-rule="evenodd"
       clip-rule="evenodd"
       d="M 10.6929,8.02878 C 10.5461,7.7049 10.3914,7.69844 10.2517,7.69258 10.1374,7.68895 10.0066,7.68901 9.87598,7.68901 c -0.13069,0 -0.34314,0.04687 -0.52277,0.24308 -0.17974,0.19444 -0.68625,0.6652 -0.68625,1.6222 0,0.95711 0.7026,1.88181 0.80053,2.01161 0.09811,0.1295 1.35631,2.1564 3.34901,2.9361 1.6561,0.648 1.9931,0.5189 2.3526,0.4867 0.3595,-0.0351 1.1599,-0.4702 1.3233,-0.9246 0.1633,-0.4539 0.1633,-0.8434 0.1144,-0.9247 -0.049,-0.0815 -0.1798,-0.1295 -0.3759,-0.2267 -0.1961,-0.0972 -1.1599,-0.5682 -1.3396,-0.6329 -0.1798,-0.065 -0.3105,-0.0971 -0.4412,0.098 -0.1307,0.1944 -0.5062,0.6324 -0.6206,0.7621 -0.1144,0.13 -0.2287,0.1458 -0.4248,0.0468 C 13.2086,13.0889 12.5772,12.884 11.8281,12.2214 11.2453,11.706 10.8518,11.0692 10.7374,10.8744 10.623,10.68 10.725,10.5745 10.8235,10.4773 10.9116,10.39 11.0196,10.2506 11.1176,10.137 11.2155,10.0233 11.2481,9.94258 11.3135,9.81256 11.3789,9.68254 11.346,9.56952 11.2975,9.47171 11.2486,9.37449 10.8672,8.41346 10.6929,8.02878 Z"
       fill="#fafafa"
       id="path4" />
    <path
       d="M 18.2042,5.78245 C 16.7227,4.31157 14.7527,3.50094 12.6539,3.5 c -4.32494,0 -7.84457,3.49103 -7.8463,7.7819 -4.9e-4,1.2659 0.30711,2.5039 0.89423,3.6149 0.09425,0.1784 0.12277,0.3855 0.0691,0.5799 l -0.68347,2.4762 c -0.15364,0.5566 0.35299,1.0708 0.91182,0.9253 L 8.6152,18.1976 c 0.18376,-0.0478 0.37812,-0.0227 0.54842,0.0613 1.07888,0.5321 2.27318,0.8113 3.48698,0.8118 4.3242,0 7.8476,-3.4918 7.8494,-7.7825 8e-4,-2.07957 -0.8145,-4.0347 -2.2958,-5.50575 z M 12.6539,17.7563 C 11.4835,17.7557 10.3336,17.4436 9.33254,16.8545 9.18,16.7649 8.9981,16.7396 8.82689,16.7842 L 7.88358,17.0295 C 7.32474,17.1749 6.81815,16.6607 6.97183,16.1041 L 7.20784,15.2493 C 7.25697,15.0713 7.22861,14.8809 7.12975,14.7249 6.4769,13.695 6.13223,12.5048 6.13275,11.2827 6.1338,7.71617 9.05956,4.8146 12.6568,4.8146 c 1.742,7.6e-4 3.3792,0.67437 4.6106,1.89691 1.2313,1.22261 1.9089,2.84788 1.9084,4.57629 -0.0011,3.5667 -2.9275,6.4685 -6.5219,6.4685 z"
       fill="#fafafa"
       id="path5" />
  </g>
  <defs
     id="defs6">
    <radialGradient
       id="paint0_radial_109_2"
       cx="0"
       cy="0"
       r="1"
       gradientUnits="userSpaceOnUse"
       gradientTransform="translate(12 1) rotate(90) scale(22)">
      <stop
         stop-color="#50FE71"
         id="stop5" />
      <stop
         offset="1"
         stop-color="#01AF22"
         id="stop6" />
    </radialGradient>
  </defs>
</svg>

<svg width="24" height="24" viewBox="0 0 24 24" fill="none" xmlns="http://www.w3.org/2000/svg">
<path fill-rule="evenodd" clip-rule="evenodd" d="M1 11.5632C1 11.5642 1 11.5651 1 11.566C1.00001 11.7073 1.00162 11.8489 1.00483 11.9906C0.974199 13.5124 1.12311 15.0161 1.45158 16.5017C2.22559 19.8018 4.26839 21.8208 7.57997 22.5585C9.00824 22.8524 10.4481 22.9996 11.8995 23C11.9038 23 11.9081 23 11.9124 23C12.285 22.9999 12.6584 22.9901 13.0325 22.9706C14.6647 22.943 16.2531 22.6682 17.7978 22.1463C19.704 21.447 21.0824 20.1761 21.933 18.3336C22.3916 17.271 22.6895 16.1642 22.8265 15.0133C23.0096 13.3758 23.0478 11.7347 22.941 10.09C22.8639 8.78021 22.6119 7.50549 22.185 6.26585C21.4386 4.20689 20.0525 2.76044 18.0269 1.9265C16.8085 1.46308 15.5484 1.18066 14.2467 1.07924C12.8111 0.977551 11.3755 0.973736 9.93969 1.06779C9.83043 1.0996 9.71588 1.11486 9.59604 1.11359C8.8536 1.17326 8.12048 1.29157 7.39669 1.46852C4.2905 2.20701 2.33171 4.11908 1.52031 7.20471C1.17352 8.6385 1.00008 10.0914 1 11.5632Z" fill="url(#paint0_radial_109_2)"/>
<path opacity="0.75" d="M17.6188 6.30872C16.1201 4.82074 14.1273 4.00094 12.0041 4C7.6289 4 4.06839 7.53145 4.06665 11.8722C4.06616 13.154 4.37793 14.4075 4.97299 15.5324C5.06732 15.7107 5.09582 15.9177 5.04214 16.1122L4.34574 18.6352C4.1921 19.1918 4.69872 19.706 5.25755 19.5606L7.92181 18.8674C8.10556 18.8196 8.29991 18.8447 8.47017 18.9287C9.56236 19.4679 10.7717 19.7509 12.0007 19.7514C16.3751 19.7514 19.9394 16.2192 19.9413 11.8786C19.942 9.77488 19.1173 7.79682 17.6188 6.30872ZM12.0041 18.4218C10.8201 18.4212 9.6569 18.1055 8.64416 17.5095C8.48985 17.4188 8.30579 17.3931 8.13254 17.4382L7.1638 17.6902C6.60495 17.8355 6.09835 17.3213 6.25204 16.7647L6.4948 15.8855C6.5445 15.7055 6.51583 15.5128 6.41584 15.355C5.75539 14.3131 5.40672 13.1091 5.40723 11.8727C5.40828 8.26484 8.36803 5.32961 12.0071 5.32961C13.7693 5.33037 15.4255 6.01179 16.6712 7.24851C17.9168 8.48529 18.6022 10.1296 18.6017 11.8781C18.6006 15.4861 15.6402 18.4218 12.0041 18.4218Z" fill="black" fill-opacity="0.1875"/>
<path opacity="0.75" fill-rule="evenodd" clip-rule="evenodd" d="M10.2386 8.01505C10.1206 7.67961 9.96707 7.65969 9.82839 7.64168C9.71486 7.6281 9.58456 7.61676 9.45442 7.60537C9.32423 7.59398 9.1085 7.62217 8.91246 7.80197C8.71645 7.98001 8.17084 8.40482 8.08743 9.35818C8.00401 10.3117 8.62335 11.2941 8.70959 11.432C8.79604 11.5695 9.87277 13.6983 11.7899 14.6488C13.3833 15.4386 13.7302 15.3394 14.0911 15.3386C14.4523 15.335 15.2876 14.9713 15.49 14.5329C15.6923 14.095 15.7263 13.7069 15.6846 13.6216C15.6428 13.5362 15.5168 13.477 15.3299 13.3631C15.143 13.2491 14.2239 12.6959 14.0505 12.6158C13.8771 12.5354 13.7497 12.4921 13.6025 12.6749C13.4553 12.8573 13.043 13.2609 12.9178 13.3801C12.7925 13.4996 12.6772 13.5054 12.4905 13.3897C12.3037 13.2752 11.6926 13.016 11.0041 12.2906C10.4684 11.7264 10.1319 11.0577 10.035 10.8537C9.93795 10.6501 10.0488 10.5539 10.1554 10.4656C10.2507 10.3864 10.3705 10.2569 10.478 10.1522C10.5854 10.0476 10.625 9.96996 10.7014 9.84613C10.7779 9.72231 10.7549 9.60685 10.7152 9.50519C10.6749 9.40407 10.3787 8.41346 10.2386 8.01505Z" fill="black" fill-opacity="0.1875"/>
<path fill-rule="evenodd" clip-rule="evenodd" d="M10.6929 8.02878C10.5461 7.7049 10.3914 7.69844 10.2517 7.69258C10.1374 7.68895 10.0066 7.68901 9.87598 7.68901C9.74529 7.68901 9.53284 7.73588 9.35321 7.93209C9.17347 8.12653 8.66696 8.59729 8.66696 9.55429C8.66696 10.5114 9.36956 11.4361 9.46749 11.5659C9.5656 11.6954 10.8238 13.7223 12.8165 14.502C14.4726 15.15 14.8096 15.0209 15.1691 14.9887C15.5286 14.9536 16.329 14.5185 16.4924 14.0641C16.6557 13.6102 16.6557 13.2207 16.6068 13.1394C16.5578 13.0579 16.427 13.0099 16.2309 12.9127C16.0348 12.8155 15.071 12.3445 14.8913 12.2798C14.7115 12.2148 14.5808 12.1827 14.4501 12.3778C14.3194 12.5722 13.9439 13.0102 13.8295 13.1399C13.7151 13.2699 13.6008 13.2857 13.4047 13.1867C13.2086 13.0889 12.5772 12.884 11.8281 12.2214C11.2453 11.706 10.8518 11.0692 10.7374 10.8744C10.623 10.68 10.725 10.5745 10.8235 10.4773C10.9116 10.39 11.0196 10.2506 11.1176 10.137C11.2155 10.0233 11.2481 9.94258 11.3135 9.81256C11.3789 9.68254 11.346 9.56952 11.2975 9.47171C11.2486 9.37449 10.8672 8.41346 10.6929 8.02878Z" fill="#FAFAFA"/>
<path d="M18.2042 5.78245C16.7227 4.31157 14.7527 3.50094 12.6539 3.5C8.32896 3.5 4.80933 6.99103 4.8076 11.2819C4.80711 12.5478 5.11471 13.7858 5.70183 14.8968C5.79608 15.0752 5.8246 15.2823 5.77093 15.4767L5.08746 17.9529C4.93382 18.5095 5.44045 19.0237 5.99928 18.8782L8.6152 18.1976C8.79896 18.1498 8.99332 18.1749 9.16362 18.2589C10.2425 18.791 11.4368 19.0702 12.6506 19.0707C16.9748 19.0707 20.4982 15.5789 20.5 11.2882C20.5008 9.20863 19.6855 7.2535 18.2042 5.78245ZM12.6539 17.7563C11.4835 17.7557 10.3336 17.4436 9.33254 16.8545C9.18 16.7649 8.9981 16.7396 8.82689 16.7842L7.88358 17.0295C7.32474 17.1749 6.81815 16.6607 6.97183 16.1041L7.20784 15.2493C7.25697 15.0713 7.22861 14.8809 7.12975 14.7249C6.4769 13.695 6.13223 12.5048 6.13275 11.2827C6.1338 7.71617 9.05956 4.8146 12.6568 4.8146C14.3988 4.81536 16.036 5.48897 17.2674 6.71151C18.4987 7.93412 19.1763 9.55939 19.1758 11.2878C19.1747 14.8545 16.2483 17.7563 12.6539 17.7563Z" fill="#FAFAFA"/>
<defs>
<radialGradient id="paint0_radial_109_2" cx="0" cy="0" r="1" gradientUnits="userSpaceOnUse" gradientTransform="translate(12 1) rotate(90) scale(22)">
<stop stop-color="#50FE71"/>
<stop offset="1" stop-color="#01AF22"/>
</radialGradient>
</defs>
</svg>
